symbols/web/arrow_right_alt/materialsymbolsrounded/arrow_right_alt_wght600grad200_24px.svg

<svg xmlns="http://www.w3.org/2000/svg" height="24" width="24"><path d="M12.875 17.65q-.45-.475-.45-1.1 0-.625.475-1.1l1.925-1.95H4.8q-.625 0-1.075-.438-.45-.437-.45-1.087 0-.65.45-1.1.45-.45 1.075-.45h10.025l-1.95-1.975Q12.4 8 12.4 7.375t.475-1.1q.425-.425 1.063-.438.637-.012 1.087.438l4.6 4.625q.225.2.338.487.112.288.112.588 0 .275-.112.562-.113.288-.338.513L15 17.675q-.425.45-1.062.438-.638-.013-1.063-.463Z"/></svg>

<svg xmlns="http://www.w3.org/2000/svg" height="24" width="24"><path d="M12.875 17.65Q12.425 17.175 12.425 16.55Q12.425 15.925 12.9 15.45L14.825 13.5H4.8Q4.175 13.5 3.725 13.062Q3.275 12.625 3.275 11.975Q3.275 11.325 3.725 10.875Q4.175 10.425 4.8 10.425H14.825L12.875 8.45Q12.4 8 12.4 7.375Q12.4 6.75 12.875 6.275Q13.3 5.85 13.938 5.837Q14.575 5.825 15.025 6.275L19.625 10.9Q19.85 11.1 19.963 11.387Q20.075 11.675 20.075 11.975Q20.075 12.25 19.963 12.537Q19.85 12.825 19.625 13.05L15 17.675Q14.575 18.125 13.938 18.113Q13.3 18.1 12.875 17.65Z"/></svg>
